X:1
T:Manna, 88.68.86
T:Manna, 88.68.86
T:Johann Gottfried Schicht, 1819
T:Public Domain Courtesy of the Cyber Hymnal™
C:Johann Gottfried Schicht, 1819
Z:Public Domain
Z:Courtesy of the Cyber Hymnal™
%%score ( 1 2 ) ( 3 4 )
L:1/8
Q:1/4=110
M:4/4
K:Ab
V:1 treble 
V:2 treble 
V:3 bass 
V:4 bass 
V:1
 [EA]2 [Ec]2 [EA]2 [DF]2 | [EF]2 [DB]2 [FB]2 [EG]2 | [B,E]2 [EA]2 [CA]2 [FB]2 | %3
 [EB]2 [Ec]2 c2 [GB]2 | [EG]2 (BA) [EG]2 [EF]2 | [=DF]2 E6 | [B,E]2 [EA]2 [E_G]2 [DF]2 | %7
 [CF]2 [FB]2 [EA]2 [EG]2 | [EG]2 [Ec]2 [=EB]2 [FA]2 | [FA]2 [Dd]2 [Ec]2 [EA]2 | %10
 [EA]2 (ed) [Fc]2 [FB]2 | B2 [CA]6 |] %12
V:2
 x8 | x8 | x8 | x4 (EF) x2 | x2 F2 x4 | x2 E6 | x8 | x8 | x8 | x8 | x2 E2 x4 | (ED) x6 |] %12
V:3
 [A,,C]2 A,2 [C,A,]2 [D,A,]2 | [C,=A,]2 [B,,B,]2 [D,B,]2 [E,B,]2 | G,2 [C,A,]2 [F,A,]2 [D,A,]2 | %3
 [E,G,]2 A,2 A,2 [E,G,]2 | [E,B,]2 [=D,B,]2 [E,B,]2 [A,,C]2 | (B,A,) [E,G,]6 | %6
 [D,G,]2 [C,A,]2 [A,,A,]2 [D,A,]2 | =A,2 [D,B,]2 C2 [E,B,]2 | [E,B,]2 A,2 [G,B,]2 C2 | %9
 D2 (F,G,) A,2 [E,G,]2 | [D,G,]2 [C,A,]2 [F,A,]2 [D,A,]2 | [E,G,]2 [A,,A,]6 |] %12
V:4
 x2 A,2 x4 | x8 | (E,D,) x6 | x2 A,2 (C,D,) x2 | x8 | B,,2 x6 | x8 | (F,E,) x (C, D,) x3 | %8
 x2 A,2 (F,E,) x2 | (D,C,) B,,2 C,D, x2 | x8 | x8 |] %12

